gy/si-glyph-arrow-thin-left-bottom.svg

<svg viewBox="0 0 17 16" xmlns="http://www.w3.org/2000/svg" class="si-glyph si-glyph-arrow-thin-left-bottom" height="1em" width="1em">
  <path d="m1.124 15.922-.017-8.721c0-.648.611-1.029.895-1.027.57.001.948.464.949 1.034l.01 5.347L15.355.355a.938.938 0 0 1 1.327.018A.936.936 0 0 1 16.7 1.7L4.554 14.012l5.333.008c.57.002 1.033.465 1.033 1.033.003.57-.457.887-1.027.885l-8.769-.016Z" fill="#434343" class="si-glyph-fill" fill-rule="evenodd"/>
</svg>

<svg viewBox="0 0 17 16" version="1.1" xmlns="http://www.w3.org/2000/svg" class="si-glyph si-glyph-arrow-thin-left-bottom" height="1em" width="1em">
  <g stroke="none" stroke-width="1" fill="none" fill-rule="evenodd">
    <path d="M1.124,15.922 L1.107,7.201 C1.107,6.553 1.718,6.172 2.002,6.174 C2.572,6.175 2.95,6.638 2.951,7.208 L2.961,12.555 L15.355,0.355 C15.717,-0.00599999997 16.311,0.00100000003 16.682,0.373 C17.055,0.744 17.063,1.339 16.7,1.7 L4.554,14.012 L9.887,14.02 C10.457,14.022 10.92,14.485 10.92,15.053 C10.923,15.623 10.463,15.94 9.893,15.938 L1.124,15.922 L1.124,15.922 Z" fill="#434343" class="si-glyph-fill"/>
  </g>
</svg>
